X: 2
T: A Trip To Mabou Ridge
Z: Tate
S: https://thesession.org/tunes/12405#setting20710
R: strathspey
M: 4/4
L: 1/8
K: Amix
|:e>d | c<e A>c e2 g2|f<a d>f e2 e>d|c<e A>c e2 g2|B<d G>B d2 e>d|
c<e A>c e2 g2|f<a d>f e2 e>d|c<e A>c B<d G>B| A4 A2:|
|:f>^g|a>^g a>f e2=g2|f>a d>f e2 f>^g|a>^g a>f e>f =g>e|d>B G>B d2 f>^g|
a>^g a>f e2=g2|f>a d>f e2 e>d|c<e A>c B<d G>B| A4 A2 :|
|:e>d | c<e A>c e>f g>e|f<a d>f e>f e>d|c<e A>c e>f g>e|B<d G>B d2 e>d|
c<e A>c e>f g>e|f<a d>f e>f e>d|c<e a>c B<d G>B| A4 A2 :|
|:f>^g|a>^g a>f e>f =g>e|f>a d>f e>f g>e|a>^g a>f e>f =g>e|d>B G>B d>e f>^g|
a>^g a>f e>f =g>e|f>a d>f e>f e>d|c<e a>c B<d G>B|A4 A2:|
